apps/address-book/public/meta/icon.svg

<svg width="160" height="160" viewBox="0 0 160 160" fill="none" xmlns="http://www.w3.org/2000/svg">
<rect width="160" height="160" fill="url(#paint0_linear)"/>
<g clip-path="url(#clip0)">
<path d="M91.4596 49.3899C96.5813 52.6012 100.173 58.0353 100.827 64.343C102.915 65.319 105.233 65.8802 107.691 65.8802C116.664 65.8802 123.937 58.6076 123.937 49.636C123.937 40.663 116.664 33.3904 107.691 33.3904C98.8041 33.3931 91.595 40.5358 91.4596 49.3899ZM80.8167 82.6525C89.7897 82.6525 97.0623 75.3785 97.0623 66.4069C97.0623 57.4353 89.7883 50.1627 80.8167 50.1627C71.8451 50.1627 64.5683 57.4367 64.5683 66.4083C64.5683 75.3798 71.8451 82.6525 80.8167 82.6525ZM87.7078 83.7598H73.9228C62.4533 83.7598 53.1223 93.0921 53.1223 104.562V121.42L53.1652 121.684L54.3264 122.047C65.272 125.467 74.7813 126.608 82.6083 126.608C97.8959 126.608 106.757 122.249 107.303 121.971L108.388 121.422H108.504V104.562C108.508 93.0921 99.1773 83.7598 87.7078 83.7598ZM114.585 66.9889H100.907C100.759 72.4617 98.4226 77.3898 94.7275 80.9342C104.922 83.9657 112.382 93.4198 112.382 104.587V109.781C125.887 109.287 133.67 105.459 134.183 105.202L135.268 104.652H135.384V87.788C135.384 76.3199 126.053 66.9889 114.585 66.9889ZM52.3109 65.883C55.4889 65.883 58.4458 64.9554 60.9507 63.3754C61.7469 58.1818 64.531 53.6435 68.5081 50.5525C68.5247 50.2484 68.5537 49.947 68.5537 49.6401C68.5537 40.6672 61.2797 33.3945 52.3109 33.3945C43.3365 33.3945 36.0653 40.6672 36.0653 49.6401C36.0653 58.6089 43.3365 65.883 52.3109 65.883ZM66.9004 80.9342C63.2233 77.4078 60.8954 72.5059 60.7254 67.0663C60.218 67.029 59.7162 66.9889 59.1992 66.9889H45.4156C33.9461 66.9889 24.6151 76.3199 24.6151 87.788V104.649L24.658 104.909L25.8192 105.275C34.6 108.016 42.4366 109.28 49.2434 109.678V104.587C49.2462 93.4198 56.7027 83.9685 66.9004 80.9342Z" fill="white" fill-opacity="0.9"/>
</g>
<defs>
<linearGradient id="paint0_linear" x1="160" y1="160" x2="0" y2="0" gradientUnits="userSpaceOnUse">
<stop stop-color="#EE355E"/>
<stop offset="1" stop-color="#EE18CA"/>
</linearGradient>
<clipPath id="clip0">
<rect width="110.769" height="110.769" fill="white" transform="translate(24.6151 24.6151)"/>
</clipPath>
</defs>
</svg>

<svg width="56" height="56" viewBox="0 0 160 160" fill="none" xmlns="http://www.w3.org/2000/svg"><path fill="url(#prefix__paint0_linear)" d="M0 0h160v160H0z"/><g clip-path="url(#prefix__clip0)"><path d="M91.46 49.39c5.121 3.211 8.713 8.645 9.367 14.953a16.151 16.151 0 006.864 1.537c8.973 0 16.246-7.272 16.246-16.244 0-8.973-7.273-16.246-16.246-16.246-8.887.003-16.096 7.146-16.231 16zM80.817 82.653c8.973 0 16.245-7.275 16.245-16.246 0-8.972-7.274-16.244-16.245-16.244-8.972 0-16.249 7.274-16.249 16.245 0 8.972 7.277 16.245 16.249 16.245zm6.89 1.107H73.924c-11.47 0-20.8 9.332-20.8 20.802v16.858l.042.264 1.161.363c10.946 3.42 20.455 4.561 28.282 4.561 15.288 0 24.149-4.359 24.695-4.637l1.085-.549h.116v-16.86c.004-11.47-9.327-20.802-20.796-20.802zm26.878-16.771h-13.678a20.021 20.021 0 01-6.18 13.945c10.195 3.032 17.655 12.486 17.655 23.653v5.194c13.505-.494 21.288-4.322 21.801-4.579l1.085-.55h.116V87.788c0-11.468-9.331-20.8-20.799-20.8zm-62.274-1.106c3.178 0 6.135-.928 8.64-2.508.796-5.193 3.58-9.731 7.557-12.822.017-.305.046-.606.046-.913 0-8.973-7.274-16.245-16.243-16.245-8.974 0-16.246 7.272-16.246 16.245 0 8.969 7.272 16.243 16.246 16.243zM66.9 80.934a20.033 20.033 0 01-6.176-13.868c-.507-.037-1.009-.077-1.526-.077H45.416c-11.47 0-20.8 9.33-20.8 20.799v16.861l.042.26 1.161.366c8.781 2.741 16.618 4.005 23.424 4.403v-5.091c.003-11.167 7.46-20.618 17.657-23.653z" fill="#fff" fill-opacity=".9"/></g><defs><linearGradient id="prefix__paint0_linear" x1="160" y1="160" x2="0" y2="0" gradientUnits="userSpaceOnUse"><stop stop-color="#500D39"/><stop offset="1" stop-color="#FF009B"/></linearGradient><clipPath id="prefix__clip0"><path fill="#fff" transform="translate(24.615 24.615)" d="M0 0h110.769v110.769H0z"/></clipPath></defs></svg>
